assets/favicon.svg

<svg width="38" height="38" viewBox="0 0 38 38" fill="none" xmlns="http://www.w3.org/2000/svg">
<rect width="38" height="38" fill="#3C3C3C"/>
<path d="M19.8717 36C18.0477 36 16.4637 35.616 15.1197 34.848C13.8077 34.048 12.7837 32.976 12.0477 31.632C11.3437 30.256 10.9917 28.72 10.9917 27.024V2.4H15.5997V27.6C15.5997 28.848 15.9837 29.888 16.7517 30.72C17.5517 31.52 18.5917 31.92 19.8717 31.92H28.8957V36H19.8717Z" fill="#F3C93B"/>
</svg>

<svg xmlns="http://www.w3.org/2000/svg" width="38" height="38" fill="none" xmlns:v="https://vecta.io/nano"><path fill="#3c3c3c" d="M0 0h38v38H0z"/><path d="M19.872 36c-1.824 0-3.408-.384-4.752-1.152a8.47 8.47 0 0 1-3.072-3.216c-.704-1.376-1.056-2.912-1.056-4.608V2.4H15.6v25.2c0 1.248.384 2.288 1.152 3.12.8.8 1.84 1.2 3.12 1.2h9.024V36h-9.024z" fill="#f3c93b"/></svg>
